docs/.gitbook/assets/icon-forward-filled-16@dark.svg

<svg width="32" height="32" viewBox="0 0 16 16" fill="none" xmlns="http://www.w3.org/2000/svg">
<rect x="0" y="0" width="16" height="16" fill="#181c1f"/>
<path d="M6.37239 3.352C6.60297 3.21763 6.88758 3.21591 7.11976 3.34748L14.6198 7.59748C14.8548 7.73065 15 7.97989 15 8.25C15 8.52011 14.8548 8.76935 14.6198 8.90252L7.11976 13.1525C6.88758 13.2841 6.60297 13.2824 6.37239 13.148C6.14181 13.0136 6 12.7669 6 12.5V4C6 3.73313 6.14181 3.48636 6.37239 3.352Z" fill="#fff"/>
<path d="M1.39611 3.33875C1.63997 3.20823 1.93588 3.22254 2.16603 3.37596L3.66603 4.37596C3.87467 4.51506 4 4.74924 4 5V11.5C4 11.7508 3.87467 11.9849 3.66603 12.124L2.16603 13.124C1.93588 13.2775 1.63997 13.2918 1.39611 13.1613C1.15224 13.0307 1 12.7766 1 12.5V4C1 3.7234 1.15224 3.46926 1.39611 3.33875Z" fill="#fff"/>
</svg>

<svg xmlns="http://www.w3.org/2000/svg" width="32" height="32" fill="none" viewBox="0 0 16 16"><path fill="#181c1f" d="M0 0h16v16H0z"/><path fill="#fff" d="M6.372 3.352a.75.75 0 0 1 .748-.005l7.5 4.25a.75.75 0 0 1 0 1.306l-7.5 4.25A.75.75 0 0 1 6 12.5V4a.75.75 0 0 1 .372-.648m-4.976-.013a.75.75 0 0 1 .77.037l1.5 1A.75.75 0 0 1 4 5v6.5a.75.75 0 0 1-.334.624l-1.5 1A.75.75 0 0 1 1 12.5V4a.75.75 0 0 1 .396-.661"/></svg>
